!!!COM: Palestrina, Giovanni Perluigi da
!!!OPR: Missa Ascendo ad Patrem
!!!OMD: Agnus II
!!!OTL: dona nobis
**kern	**kern	**kern	**kern	**kern
*Ibass	*Itenor	*Itenor	*Icalto	*Icant
!Bassus	!Tenor 2	!Tenor 1	!Altus	!Cantus
*clefF4	*clefGv2	*clefGv2	*clefG2	*clefG2
*k[]	*k[]	*k[]	*k[]	*k[]
*C:ion	*C:ion	*C:ion	*C:ion	*C:ion
*M3/2	*M3/2	*M3/2	*M3/2	*M3/2
=28	=28	=28	=28	=28
1G	2r	2G	1.g	1b
.	2d	2B	.	.
2C	2e	2c	.	2r
=29	=29	=29	=29	=29
2G	2d	2B	2r	1dd
2G	4d	2B	2b	.
.	4g	.	.	.
2r	2c	2r	2cc	2ee
=30	=30	=30	=30	=30
1G	1g	2r	1b	1dd
.	.	2B	.	.
2C	2e	2c	2g	2cc
=31	=31	=31	=31	=31
2G	1.d	2d	2.g	2.b
2G	.	2B	.	.
.	.	.	8f#	8a
.	.	.	8e	8g
2r	.	2r	2f#	2a
=32	=32	=32	=32	=32
1G	2G	1d	1.g	2g
.	2B	.	.	2r
2C	2c	2e	.	2r
=33	=33	=33	=33	=33
2G	2B	2d	1g	2r
2G	4B	4d	.	2dd
.	4d	4B	.	.
2r	2e	2c	2r	2g
=34	=34	=34	=34	=34
1G	1d	1B	1g	2dd
.	.	.	.	2dd
2A	2c	2A	2f	2r
=35	=35	=35	=35	=35
1G	2.B	4B	2e	1r
.	.	4c	.	.
.	.	4d	2.d	.
.	8A	4e	.	.
.	8G	.	.	.
2F	2A	2f	.	2r
.	.	.	4c	.
=36	=36	=36	=36	=36
2.E	2.G	2g	1c	1r
.	.	2e	.	.
8D	4A	.	.	.
8C	.	.	.	.
2D	2F	2f	2B	2r
=37	=37	=37	=37	=37
2C	2G	2e	2c	1ee
2c	2r	2g	2c	.
2F	2r	2a	2cc	2ff
=38	=38	=38	=38	=38
1c	1r	1g	1cc	1ee
2d	2r	2f	2a	2dd
=39	=39	=39	=39	=39
2A	1r	2.e	2a	2.cc
2c	.	.	4g	.
.	.	8d	4f	8b
.	.	8c	.	8a
2G	2r	2d	2g	2b
=40	=40	=40	=40	=40
1C	2r	2c	2e	1.cc
.	2c	2e	2g	.
2r	2F	2f	2a	.
=41	=41	=41	=41	=41
2r	2c	2e	2g	1ee
2c	2.c	4e	4g	.
.	.	4g	4cc	.
2F	.	2a	2cc	2ff
.	4d	.	.	.
=42	=42	=42	=42	=42
1c	4e	2g	1cc	2ee
.	4f	.	.	.
.	2g	1e	.	4ee
.	.	.	.	4dd
2A	[2a	.	2cc	4cc
.	.	.	.	4b
=43	=43	=43	=43	=43
1.F	2a]	1.f	2cc	2a
.	2.A	.	1a	2cc
.	.	.	.	2dd
.	4B	.	.	.
=44	=44	=44	=44	=44
1.C	1.c	1.e	1.g	1.ee
==	==	==	==	==
*-	*-	*-	*-	*-
!!!CDT: 1525/^1526/-1594/2/2
!!!OCY: Italia
!!!AGN: Mass (Parody)
!!!AST: renaissance, vocal
!!!ASW: Motet 1572 (Palestrina)
!!!PWK: Masses, Book 12
!!!RNB: Cadence finals: G,D
!!!YOR: Le Opere Complete, v. 29, p. 54
!!!YOO: Rome, Italy: Fratelli Scalera
!!!END: 1992//
!!!EED: John Miller
!!!YEC: Copyright 2000, John Miller
!!!YEN: United States of America
!!!YEM: Rights to all derivative electronic formats reserved.
!!!YEM: Refer to licensing agreement for further details.
!!!YEM: This file must be accompanied by the licensing agreement.
!!!YEM: A copy of the licensing agreement may be found at http://www.music-cog.ohio-state.edu/HumdrumDatabases/Palestrina/license.txt
!!!EMD: converted to Humdrum by Bret Aarden
